images/category_icons/onboarding-icon.svg

<svg xmlns="http://www.w3.org/2000/svg" fill="none" viewBox="0 0 496 496"><path fill="#000" d="M224 144h24c12.92 0 24.536-7.176 30.312-18.736l.84-1.688-14.312-7.16-.84 1.696c-3.048 6.096-9.176 9.888-16 9.888h-24v16zM80 224h24c12.92 0 24.536-7.176 30.312-18.736l.84-1.688-14.312-7.16-.84 1.696c-3.048 6.096-9.176 9.888-16 9.888H80v16zM72.78 131.536l14.304-7.152 15.992 31.984-14.304 7.152-15.992-31.984zM104.764 131.544l14.304-7.152 15.992 31.984-14.304 7.152-15.992-31.984zM376.652 115.608l14.304-7.152 15.992 31.984-14.304 7.152-15.992-31.984zM408.636 115.616l14.304-7.152 15.992 31.984-14.304 7.152-15.992-31.984z"/><path fill="#000" d="M496 136c0-48.52-39.48-88-88-88-33.256 0-62.256 18.552-77.216 45.84l3.272-13.096A64.858 64.858 0 00336 64.984C336 29.152 306.848 0 271.016 0h-46.032C189.152 0 160 29.152 160 64.984c0 5.32.656 10.624 1.944 15.76l.888 3.552C147.768 71.376 128.4 64 108.224 64H90.232c-19 0-35.496 13.52-39.224 32.16l-1.92 9.6C29.368 112.896 16 131.648 16 153.144c0 5.424.864 10.768 2.576 15.888l2.152 6.456C17.792 180.32 16 185.936 16 192c0 17.648 14.352 32 32 32h.808c2.312 11.352 9.544 20.832 19.264 26.48l-2.312 6.944C26.824 269.16 0 304.944 0 345.968V472.84l85.6-8.56c26.776 20.48 59.888 31.72 93.624 31.72H264c13.232 0 24-10.768 24-24 0-2.816-.576-5.488-1.472-8H296c13.232 0 24-10.768 24-24 0-2.848-.584-5.536-1.496-8.072 33.136-.376 65.584-11.52 91.896-31.648l85.6 8.56V288.664c0-14.736-4.872-28.4-13.168-39.408C491.344 238.416 496 225.144 496 211.16V136zm-88-72c39.696 0 72 32.296 72 72v75.16c0 9.624-3.04 18.736-8.496 26.424-7.28-5.824-15.864-10.176-25.368-12.488l-4.504-13.512C455.576 200.44 464 183.488 464 164.92V128h-16v36.92c0 18.016-10.816 33.984-27.536 40.68-7.968 3.184-16.96 3.184-24.92 0C378.816 198.904 368 182.936 368 164.92V128h-16v36.92c0 18.568 8.424 35.52 22.376 46.656l-4.504 13.52c-9.368 2.288-17.968 6.624-25.336 12.528-5.48-7.696-8.536-16.824-8.536-26.464V136c0-39.704 32.304-72 72-72zm-89.76 320.928c1.112-2.768 1.76-5.768 1.76-8.928 0-10.336-6.6-19.088-15.784-22.456.872-11.68 6.096-22.472 14.616-30.36 7.736 8.064 18.456 12.816 30.072 12.816H352v-16h-3.096c-9.84 0-18.672-5.472-23.104-14.352-5.424-10.88-16.344-17.648-28.496-17.648h-9.336c-8.8 0-15.968-7.176-15.968-16h44.776c29.976 0 59.344 9.992 83.224 28.048v87.896c-19.024 14.384-41.528 23.56-65.056 26.712.616-2.12 1.056-4.328 1.056-6.656 0-11.064-7.56-20.312-17.76-23.072zM160 176c8.824 0 16 7.176 16 16s-7.176 16-16 16v-32zm32-48c-8.824 0-16-7.176-16-16s7.176-16 16-16v32zm0 16h.808c2.312 11.352 9.544 20.832 19.264 26.48l-2.312 6.944c-6.488 1.952-12.648 4.632-18.488 7.904-.688-3.24-1.976-6.232-3.568-9.024 2.8-8.464 4.296-17.24 4.296-26.192v-2.336c0-1.264-.112-2.528-.168-3.792.056 0 .112.016.168.016zm112-48c8.824 0 16 7.176 16 16s-7.176 16-16 16V96zm85.6 124.464A49.355 49.355 0 00408 224a49.355 49.355 0 0018.4-3.536c.392-.16.744-.392 1.136-.552L432 233.304V240h-48v-6.696l4.464-13.4c.392.168.744.4 1.136.56zm18.944 65.952c-3.112-2.304-6.288-4.512-9.552-6.576-6.672-6.536-11.304-14.856-13.504-23.84h45.024c-3.024 12.576-10.808 23.456-21.968 30.416zm-36.584-20.024a154.414 154.414 0 00-25.952-7.456c5.624-7.464 13.24-13.144 21.992-16.448v1.736c0 7.608 1.416 15.096 3.96 22.168zm-43.424-9.904c-3.912-.304-7.832-.488-11.76-.488H272c-1.032 0-2.04.12-3.024.304l-4.272-14.944 4.24-6.36 23.448 18.752 13.8-48.296a76.541 76.541 0 0114.544 14.752c1.552 10.64 5.8 20.608 12.464 29.08-1.72 2.272-3.248 4.696-4.664 7.2zM232 176h32c1.624 0 3.168-.288 4.744-.48l1.848 5.536L248 198l-22.584-16.936 1.848-5.536c1.568.184 3.112.472 4.736.472zm29.064 32.2l20.528-15.392a76.68 76.68 0 0110.44 3.976l-8.416 29.456-22.552-18.04zm-46.608-15.36l20.48 15.36-22.544 18.04-8.408-29.416c3.368-1.584 6.864-2.896 10.472-3.984zM248 218.248l8.408 6.72L251.72 232h-7.44l-4.688-7.032 8.408-6.72zM246.032 248h3.936l6.248 21.872c-.096.704-.216 1.4-.216 2.128 0 5.856 1.696 11.272 4.448 16h-25.84l11.424-40zm57.16-104H304c5.856 0 11.272-1.696 16-4.448v56.496c-9.784-8.464-21.264-14.856-33.76-18.624l-2.312-6.944c9.72-5.648 16.952-15.128 19.264-26.48zM288 136c0 13.232-10.768 24-24 24h-32c-13.232 0-24-10.768-24-24V86.832c0-5.744 3-10.936 7.904-13.808 7.008 9.944 18.144 16.816 31.144 18.12L288 95.24V136zm-128.808 88H160c12.336 0 22.944-7.088 28.28-17.344.504-.408 1.032-.76 1.544-1.152l13.784 48.256 23.448-18.752 4.24 6.36L217.968 288H200c-3.768 0-7.296.952-10.472 2.504-11.832-15.832-28.272-27.368-47.288-33.088l-2.312-6.944c9.72-5.64 16.952-15.12 19.264-26.472zm-21.616 48.816c3.6 1.08 7.12 2.336 10.472 3.904l-8.44 29.52-22.544-18.04 20.512-15.384zM104 298.248l8.408 6.72L107.72 312h-7.44l-4.688-7.032 8.408-6.72zM102.032 328h3.936l2.64 9.248a153.663 153.663 0 00-11 6.248L102.032 328zm21.328 2.656l-2.656-9.296 4.24-6.36 13.344 10.68a156.2 156.2 0 00-14.928 4.976zm38.84-45.232c6.088 4.704 11.448 10.344 15.944 16.784C176.792 305.2 176 308.504 176 312c0 2.848.584 5.536 1.496 8.072-8.728.096-17.392.968-25.92 2.536l10.624-37.184zM192 312c0-4.416 3.592-8 8-8h97.304c4.856 0 9.24 2.24 12.224 5.944-3.488 3.008-6.544 6.416-9.248 10.056H200c-4.408 0-8-3.584-8-8zm99.72 24c-1.832 5.112-2.968 10.48-3.408 16H235.52c2.752-4.728 4.448-10.144 4.448-16.008h51.752V336zM448 244.224v-1.784a49.144 49.144 0 0131.304 38.384l-45.76 4.576C442.736 273.96 448 259.584 448 244.224zM224.984 16h46.032C298.024 16 320 37.976 320 64.984c0 4.008-.496 8.008-1.464 11.88l-1.496 5.976C313.048 81.048 308.656 80 304 80h-7.584l-47.776-4.776A27.268 27.268 0 01224 48h-16c0 3.592.432 7.088 1.256 10.432C200.672 62.888 194.792 70.808 192.8 80h-.8c-4.656 0-9.048 1.048-13.04 2.84l-1.496-5.984A48.935 48.935 0 01176 64.984C176 37.976 197.976 16 224.984 16zM32 192c0-8.824 7.176-16 16-16v32c-8.824 0-16-7.176-16-16zm16-48v16c-5.184 0-10.008 1.352-14.344 3.552A34.29 34.29 0 0132 152.984a34.19 34.19 0 0125.944-33.224l4.912-1.224 3.848-19.232C68.936 88.12 78.832 80 90.232 80h17.992c20.408 0 39.728 9.4 52.552 25.168-.488 2.208-.776 4.48-.776 6.832 0 11.552 6.208 21.592 15.4 27.224.352 2.832.6 5.68.6 8.552v2.336c0 4.592-.504 9.12-1.416 13.576C170.192 161.408 165.28 160 160 160v-16h-16v72c0 13.232-10.768 24-24 24H88c-13.232 0-24-10.768-24-24v-72H48zm40 112h32c1.624 0 3.168-.288 4.744-.48l1.848 5.536L104 278l-22.584-16.936 1.848-5.536c1.568.184 3.112.472 4.736.472zm-17.592 16.8l20.536 15.4-22.552 18.04-8.424-29.464a77.437 77.437 0 0110.44-3.976zm-24.616 12.576l13.824 48.376L83.064 315l4.24 6.36-8.48 29.68-62.76-6.272a76.302 76.302 0 0129.728-59.392zM16 360.84l64 6.4v81.528l-64 6.392v-94.32zM296 448H192v16h72c4.408 0 8 3.584 8 8s-3.592 8-8 8h-84.776c-29.976 0-59.344-9.992-83.224-28.048v-87.904C119.88 345.992 149.248 336 179.224 336h44.744c0 8.824-7.168 16-15.968 16v.008h-16v16L296 368c4.408 0 8 3.584 8 8s-3.592 8-8 8H192v16h120c4.408 0 8 3.584 8 8s-3.592 8-8 8H192v16h104c4.408 0 8 3.584 8 8s-3.592 8-8 8zm120-63.24v-81.52l64-6.4v94.312l-64-6.392z"/></svg>

<svg width="496" height="496" viewBox="0 0 496 496" fill="none" xmlns="http://www.w3.org/2000/svg">
<path d="M224 144H248C260.92 144 272.536 136.824 278.312 125.264L279.152 123.576L264.84 116.416L264 118.112C260.952 124.208 254.824 128 248 128H224V144Z" fill="black"/>
<path d="M80 224H104C116.92 224 128.536 216.824 134.312 205.264L135.152 203.576L120.84 196.416L120 198.112C116.952 204.208 110.824 208 104 208H80V224Z" fill="black"/>
<path d="M72.7801 131.536L87.0841 124.384L103.076 156.368L88.772 163.52L72.7801 131.536Z" fill="black"/>
<path d="M104.764 131.544L119.068 124.392L135.06 156.376L120.756 163.528L104.764 131.544Z" fill="black"/>
<path d="M376.652 115.608L390.956 108.456L406.948 140.44L392.644 147.592L376.652 115.608Z" fill="black"/>
<path d="M408.636 115.616L422.94 108.464L438.932 140.448L424.628 147.6L408.636 115.616Z" fill="black"/>
<path d="M496 136C496 87.48 456.52 48 408 48C374.744 48 345.744 66.552 330.784 93.84L334.056 80.744C335.344 75.608 336 70.304 336 64.984C336 29.152 306.848 0 271.016 0H224.984C189.152 0 160 29.152 160 64.984C160 70.304 160.656 75.608 161.944 80.744L162.832 84.296C147.768 71.376 128.4 64 108.224 64H90.232C71.232 64 54.736 77.52 51.008 96.16L49.088 105.76C29.368 112.896 16 131.648 16 153.144C16 158.568 16.864 163.912 18.576 169.032L20.728 175.488C17.792 180.32 16 185.936 16 192C16 209.648 30.352 224 48 224H48.808C51.12 235.352 58.352 244.832 68.072 250.48L65.76 257.424C26.824 269.16 0 304.944 0 345.968V472.84L85.6 464.28C112.376 484.76 145.488 496 179.224 496H264C277.232 496 288 485.232 288 472C288 469.184 287.424 466.512 286.528 464H296C309.232 464 320 453.232 320 440C320 437.152 319.416 434.464 318.504 431.928C351.64 431.552 384.088 420.408 410.4 400.28L496 408.84V288.664C496 273.928 491.128 260.264 482.832 249.256C491.344 238.416 496 225.144 496 211.16V136ZM408 64C447.696 64 480 96.296 480 136V211.16C480 220.784 476.96 229.896 471.504 237.584C464.224 231.76 455.64 227.408 446.136 225.096L441.632 211.584C455.576 200.44 464 183.488 464 164.92V128H448V164.92C448 182.936 437.184 198.904 420.464 205.6C412.496 208.784 403.504 208.784 395.544 205.6C378.816 198.904 368 182.936 368 164.92V128H352V164.92C352 183.488 360.424 200.44 374.376 211.576L369.872 225.096C360.504 227.384 351.904 231.72 344.536 237.624C339.056 229.928 336 220.8 336 211.16V136C336 96.296 368.304 64 408 64ZM318.24 384.928C319.352 382.16 320 379.16 320 376C320 365.664 313.4 356.912 304.216 353.544C305.088 341.864 310.312 331.072 318.832 323.184C326.568 331.248 337.288 336 348.904 336H352V320H348.904C339.064 320 330.232 314.528 325.8 305.648C320.376 294.768 309.456 288 297.304 288H287.968C279.168 288 272 280.824 272 272H316.776C346.752 272 376.12 281.992 400 300.048V387.944C380.976 402.328 358.472 411.504 334.944 414.656C335.56 412.536 336 410.328 336 408C336 396.936 328.44 387.688 318.24 384.928ZM160 176C168.824 176 176 183.176 176 192C176 200.824 168.824 208 160 208V176ZM192 128C183.176 128 176 120.824 176 112C176 103.176 183.176 96 192 96V128ZM192 144H192.808C195.12 155.352 202.352 164.832 212.072 170.48L209.76 177.424C203.272 179.376 197.112 182.056 191.272 185.328C190.584 182.088 189.296 179.096 187.704 176.304C190.504 167.84 192 159.064 192 150.112V147.776C192 146.512 191.888 145.248 191.832 143.984C191.888 143.984 191.944 144 192 144ZM304 96C312.824 96 320 103.176 320 112C320 120.824 312.824 128 304 128V96ZM389.6 220.464C395.488 222.816 401.672 224 408 224C414.328 224 420.512 222.816 426.4 220.464C426.792 220.304 427.144 220.072 427.536 219.912L432 233.304V240H384V233.304L388.464 219.904C388.856 220.072 389.208 220.304 389.6 220.464ZM408.544 286.416C405.432 284.112 402.256 281.904 398.992 279.84C392.32 273.304 387.688 264.984 385.488 256H430.512C427.488 268.576 419.704 279.456 408.544 286.416ZM371.96 266.392C363.544 263.16 354.872 260.656 346.008 258.936C351.632 251.472 359.248 245.792 368 242.488V244.224C368 251.832 369.416 259.32 371.96 266.392ZM328.536 256.488C324.624 256.184 320.704 256 316.776 256H272C270.968 256 269.96 256.12 268.976 256.304L264.704 241.36L268.944 235L292.392 253.752L306.192 205.456C311.656 209.672 316.552 214.616 320.736 220.208C322.288 230.848 326.536 240.816 333.2 249.288C331.48 251.56 329.952 253.984 328.536 256.488ZM232 176H264C265.624 176 267.168 175.712 268.744 175.52L270.592 181.056L248 198L225.416 181.064L227.264 175.528C228.832 175.712 230.376 176 232 176ZM261.064 208.2L281.592 192.808C285.176 193.888 288.672 195.208 292.032 196.784L283.616 226.24L261.064 208.2ZM214.456 192.84L234.936 208.2L212.392 226.24L203.984 196.824C207.352 195.24 210.848 193.928 214.456 192.84ZM248 218.248L256.408 224.968L251.72 232H244.28L239.592 224.968L248 218.248ZM246.032 248H249.968L256.216 269.872C256.12 270.576 256 271.272 256 272C256 277.856 257.696 283.272 260.448 288H234.608L246.032 248ZM303.192 144H304C309.856 144 315.272 142.304 320 139.552V196.048C310.216 187.584 298.736 181.192 286.24 177.424L283.928 170.48C293.648 164.832 300.88 155.352 303.192 144ZM288 136C288 149.232 277.232 160 264 160H232C218.768 160 208 149.232 208 136V86.832C208 81.088 211 75.896 215.904 73.024C222.912 82.968 234.048 89.84 247.048 91.144L288 95.24V136ZM159.192 224H160C172.336 224 182.944 216.912 188.28 206.656C188.784 206.248 189.312 205.896 189.824 205.504L203.608 253.76L227.056 235.008L231.296 241.368L217.968 288H200C196.232 288 192.704 288.952 189.528 290.504C177.696 274.672 161.256 263.136 142.24 257.416L139.928 250.472C149.648 244.832 156.88 235.352 159.192 224ZM137.576 272.816C141.176 273.896 144.696 275.152 148.048 276.72L139.608 306.24L117.064 288.2L137.576 272.816ZM104 298.248L112.408 304.968L107.72 312H100.28L95.592 304.968L104 298.248ZM102.032 328H105.968L108.608 337.248C104.856 339.176 101.192 341.264 97.608 343.496L102.032 328ZM123.36 330.656L120.704 321.36L124.944 315L138.288 325.68C133.232 327.08 128.256 328.752 123.36 330.656ZM162.2 285.424C168.288 290.128 173.648 295.768 178.144 302.208C176.792 305.2 176 308.504 176 312C176 314.848 176.584 317.536 177.496 320.072C168.768 320.168 160.104 321.04 151.576 322.608L162.2 285.424ZM192 312C192 307.584 195.592 304 200 304H297.304C302.16 304 306.544 306.24 309.528 309.944C306.04 312.952 302.984 316.36 300.28 320H200C195.592 320 192 316.416 192 312ZM291.72 336C289.888 341.112 288.752 346.48 288.312 352H235.52C238.272 347.272 239.968 341.856 239.968 335.992H291.72V336ZM448 244.224V242.44C464.568 248.656 476.52 263.256 479.304 280.824L433.544 285.4C442.736 273.96 448 259.584 448 244.224ZM224.984 16H271.016C298.024 16 320 37.976 320 64.984C320 68.992 319.504 72.992 318.536 76.864L317.04 82.84C313.048 81.048 308.656 80 304 80H296.416L248.64 75.224C234.592 73.824 224 62.12 224 48H208C208 51.592 208.432 55.088 209.256 58.432C200.672 62.888 194.792 70.808 192.8 80H192C187.344 80 182.952 81.048 178.96 82.84L177.464 76.856C176.496 72.992 176 68.992 176 64.984C176 37.976 197.976 16 224.984 16ZM32 192C32 183.176 39.176 176 48 176V208C39.176 208 32 200.824 32 192ZM48 144V160C42.816 160 37.992 161.352 33.656 163.552C32.576 160.184 32 156.688 32 152.984C32 137.24 42.664 123.576 57.944 119.76L62.856 118.536L66.704 99.304C68.936 88.12 78.832 80 90.232 80H108.224C128.632 80 147.952 89.4 160.776 105.168C160.288 107.376 160 109.648 160 112C160 123.552 166.208 133.592 175.4 139.224C175.752 142.056 176 144.904 176 147.776V150.112C176 154.704 175.496 159.232 174.584 163.688C170.192 161.408 165.28 160 160 160V144H144V216C144 229.232 133.232 240 120 240H88C74.768 240 64 229.232 64 216V144H48ZM88 256H120C121.624 256 123.168 255.712 124.744 255.52L126.592 261.056L104 278L81.416 261.064L83.264 255.528C84.832 255.712 86.376 256 88 256ZM70.408 272.8L90.944 288.2L68.392 306.24L59.968 276.776C63.312 275.216 66.792 273.888 70.408 272.8ZM45.792 285.376L59.616 333.752L83.064 315L87.304 321.36L78.824 351.04L16.064 344.768C16.424 320.896 27.744 299.28 45.792 285.376ZM16 360.84L80 367.24V448.768L16 455.16V360.84ZM296 448H192V464H264C268.408 464 272 467.584 272 472C272 476.416 268.408 480 264 480H179.224C149.248 480 119.88 470.008 96 451.952V364.048C119.88 345.992 149.248 336 179.224 336H223.968C223.968 344.824 216.8 352 208 352V352.008H192V368.008L296 368C300.408 368 304 371.584 304 376C304 380.416 300.408 384 296 384H192V400H312C316.408 400 320 403.584 320 408C320 412.416 316.408 416 312 416H192V432H296C300.408 432 304 435.584 304 440C304 444.416 300.408 448 296 448ZM416 384.76V303.24L480 296.84V391.152L416 384.76Z" fill="black"/>
</svg>
